svg/emoji_u1f6a1.svg

<?xml version="1.0" encoding="UTF-8"?>
<svg width="128" height="128" enable-background="new 0 0 128 128" xmlns="http://www.w3.org/2000/svg"><path d="M122.06,23H5.94C4.87,23,4,21.59,4,20s0.87-3,1.94-3h116.13c1.07,0,1.94,1.41,1.94,3 S123.13,23,122.06,23z" fill="#263238"/><g opacity=".2"><path d="m121.88 19c0.1 0.18 0.18 0.53 0.18 1s-0.2 0.82-0.3 1h-115.52c-0.1-0.18-0.24-0.53-0.24-1s0.14-0.82 0.24-1h115.76m0.06-2h-116.12c-1.07 0-1.94 1.41-1.94 3s0.87 3 1.94 3h116.13c1.07 0 1.94-1.41 1.94-3s-0.88-3-1.95-3z" fill="#eee"/></g><path d="M75.76,56.89l5.48-2.44l-15-33.67l-2.24,1l-2.24-1L54.53,37H54.5l-7.74,17.45l5.48,2.44L55.31,50 h17.38L75.76,56.89z M64,30.49L66.9,37h-5.8L64,30.49z M57.09,46l2.23-5h9.36l2.23,5H57.09z" fill="#546E7A"/><path d="m75 18.13c0 2.14-1.73 3.87-3.87 3.87h-15.26c-2.14 0-3.87-1.73-3.87-3.87v-0.25c0-2.14 1.73-3.87 3.87-3.87h15.25c2.14 0 3.87 1.73 3.87 3.87v0.25z" fill="#546E7A"/><g fill="#90A4AE"><path d="m50 25.5c0 1.38-1.12 2.5-2.5 2.5s-2.5-1.12-2.5-2.5v-9c0-1.38 1.12-2.5 2.5-2.5s2.5 1.12 2.5 2.5v9z"/><path d="m82 25.5c0 1.38-1.12 2.5-2.5 2.5s-2.5-1.12-2.5-2.5v-9c0-1.38 1.12-2.5 2.5-2.5s2.5 1.12 2.5 2.5v9z"/><rect x="48" y="16" width="32" height="9"/></g><g opacity=".2"><path d="m79.58 15.92c0.28 0 0.5 0.22 0.5 0.5v9c0 0.28-0.22 0.5-0.5 0.5s-0.5-0.22-0.5-0.5v-0.5c0-1.1-0.9-2-2-2h-8.88c-0.68 0-1.31 0.34-1.68 0.91s-0.43 1.28-0.15 1.9l12.31 27.62-1.83 0.81-2.25-5.06c-0.32-0.72-1.04-1.19-1.83-1.19h-17.38c-0.79 0-1.51 0.46-1.83 1.19l-2.25 5.06-1.83-0.81 6.8-15.32c0.06-0.09 0.12-0.19 0.17-0.3l5.35-12c0.28-0.62 0.22-1.33-0.15-1.9s-1-0.91-1.68-0.91h-9.88c-1.1 0-2 0.9-2 2v0.5c0 0.28-0.22 0.5-0.5 0.5s-0.5-0.22-0.5-0.5v-9c0-0.28 0.22-0.5 0.5-0.5 0.27 0 0.45 0.2 0.49 0.4 0.19 0.93 1.01 1.6 1.96 1.6h2.55c0.73 0 1.39-0.39 1.75-1.03 0.34-0.61 0.95-0.97 1.62-0.97h15.25c0.68 0 1.28 0.36 1.62 0.97 0.35 0.63 1.02 1.03 1.75 1.03h2.55c0.95 0 1.77-0.67 1.96-1.6 0.04-0.2 0.22-0.4 0.49-0.4m-18.4 23h-1.78c-0.79 0-1.51 0.46-1.83 1.19l-2.23 5c-0.28 0.62-0.22 1.33 0.15 1.9s1 0.91 1.68 0.91h13.82c0.68 0 1.31-0.34 1.68-0.91s0.43-1.28 0.15-1.9l-2.23-5c-0.32-0.72-1.04-1.19-1.83-1.19h-1.78c0.68 0 1.31-0.34 1.68-0.91s0.43-1.28 0.15-1.9l-2.9-6.51c-0.32-0.72-1.04-1.19-1.83-1.19s-1.51 0.46-1.83 1.19l-2.9 6.51c-0.28 0.62-0.22 1.33 0.15 1.9 0.38 0.56 1.01 0.91 1.68 0.91m18.4-25c-1.21 0-2.22 0.86-2.45 2h-2.55c-0.66-1.19-1.92-2-3.37-2h-15.25c-1.46 0-2.71 0.81-3.37 2h-2.55c-0.23-1.14-1.24-2-2.45-2-1.38 0-2.5 1.12-2.5 2.5v9c0 1.38 1.12 2.5 2.5 2.5s2.5-1.12 2.5-2.5v-0.5h9.88l-5.35 12h-0.03l-7.74 17.45 5.48 2.44 3.07-6.89h17.38l3.07 6.89 5.48-2.44-13.13-29.45h8.88v0.5c0 1.38 1.12 2.5 2.5 2.5s2.5-1.12 2.5-2.5v-9c0-1.38-1.12-2.5-2.5-2.5zm-18.4 23 2.9-6.51 2.9 6.51h-5.8zm-4.01 9 2.23-5h9.36l2.23 5h-13.82z" fill="#424242"/></g><linearGradient id="a" x1="64" x2="64" y1="51.25" y2="108.75" gradientUnits="userSpaceOnUse"><stop stop-color="#F44336" offset=".2785"/><stop stop-color="#EE3F35" offset=".5259"/><stop stop-color="#DC3431" offset=".8679"/><stop stop-color="#D32F2F" offset="1"/></linearGradient><path d="M96.39,48H31.61C25.04,48,20,53.79,20,61.06v36.49c0,1.06-0.06,1.87,0.09,2.88 C21.44,109.36,28.3,116,36.72,116h54.56c8.42,0,15.29-6.64,16.63-15.57c0.15-1.01,0.09-1.82,0.09-2.88V61.06 C108,53.79,102.96,48,96.39,48z" fill="url(#a)"/><path d="m76.33 96.32h-24.17c-2.21 0-4-1.79-4-4v-28.34c0-2.21 1.79-4 4-4h24.17c2.21 0 4 1.79 4 4v28.33c0 2.22-1.79 4.01-4 4.01z" fill="#4FC3F7"/><g opacity=".2"><path d="m96.2 51c4.83 0 8.8 4.42 8.8 10.06v36.49c0 0.27 0 0.52 0.01 0.76 0.01 0.66 0.02 1.14-0.06 1.67-1.14 7.54-6.89 13.02-13.67 13.02h-54.56c-6.78 0-12.53-5.47-13.67-13.02-0.08-0.53-0.07-1.01-0.06-1.67 0-0.24 0.01-0.49 0.01-0.76v-36.49c0-5.64 3.78-10.06 8.61-10.06h64.39m0.39-3h-64.78c-6.57 0-11.61 5.79-11.61 13.06v36.49c0 1.06-0.06 1.87 0.09 2.88 1.35 8.93 8.21 15.57 16.63 15.57h54.56c8.42 0 15.29-6.64 16.63-15.57 0.15-1.01 0.09-1.82 0.09-2.88v-36.49c0-7.27-5.04-13.06-11.61-13.06z" fill="#424242"/></g><g opacity=".2"><path d="m76.33 62.98c0.55 0 1 0.45 1 1v28.33c0 0.55-0.45 1-1 1h-24.17c-0.55 0-1-0.45-1-1v-28.33c0-0.55 0.45-1 1-1h24.17m0-3h-24.17c-2.21 0-4 1.79-4 4v28.33c0 2.21 1.79 4 4 4h24.17c2.21 0 4-1.79 4-4v-28.33c0-2.2-1.79-4-4-4z" fill="#424242"/></g><path d="m36.05 96.32h-16.05v-36.34h16.05c2.21 0 4 1.79 4 4v28.33c0 2.22-1.79 4.01-4 4.01z" fill="#4FC3F7"/><path d="M108,96.32H91.69c-2.21,0-4-1.79-4-4V63.98c0-2.21,1.79-4,4-4H108V96.32z" fill="#4FC3F7"/><g opacity=".2"><path d="m36.05 62.98c0.55 0 1 0.45 1 1v28.33c0 0.55-0.45 1-1 1h-13.05v-30.33h13.05m0-3h-16.05v36.33h16.05c2.21 0 4-1.79 4-4v-28.33c0-2.2-1.79-4-4-4z" fill="#424242"/></g><g opacity=".2"><path d="m105 62.98v30.33h-13.31c-0.55 0-1-0.45-1-1v-28.33c0-0.55 0.45-1 1-1h13.31m3-3h-16.31c-2.21 0-4 1.79-4 4v28.33c0 2.21 1.79 4 4 4h16.31v-36.33z" fill="#424242"/></g></svg>

<svg width="128" height="128" style="enable-background:new 0 0 128 128;" xmlns="http://www.w3.org/2000/svg" xmlns:xlink="http://www.w3.org/1999/xlink">
  <g>
    <path d="M122.06,23H5.94C4.87,23,4,21.59,4,20s0.87-3,1.94-3h116.13c1.07,0,1.94,1.41,1.94,3 S123.13,23,122.06,23z" style="fill:#263238;"/>
    <g style="opacity:0.2;">
      <path d="M121.88,19c0.1,0.18,0.18,0.53,0.18,1s-0.2,0.82-0.3,1H6.24C6.14,20.82,6,20.47,6,20 s0.14-0.82,0.24-1H122 M122.06,17H5.94C4.87,17,4,18.41,4,20s0.87,3,1.94,3h116.13c1.07,0,1.94-1.41,1.94-3S123.13,17,122.06,17 L122.06,17z" style="fill:#EEEEEE;"/>
    </g>
  </g>
  <path d="M75.76,56.89l5.48-2.44l-15-33.67l-2.24,1l-2.24-1L54.53,37H54.5l-7.74,17.45l5.48,2.44L55.31,50 h17.38L75.76,56.89z M64,30.49L66.9,37h-5.8L64,30.49z M57.09,46l2.23-5h9.36l2.23,5H57.09z" style="fill:#546E7A;"/>
  <path d="M75,18.13c0,2.14-1.73,3.87-3.87,3.87H55.87C53.73,22,52,20.27,52,18.13v-0.25 c0-2.14,1.73-3.87,3.87-3.87h15.25c2.14,0,3.87,1.73,3.87,3.87V18.13z" style="fill:#546E7A;"/>
  <g>
    <path d="M50,25.5c0,1.38-1.12,2.5-2.5,2.5l0,0c-1.38,0-2.5-1.12-2.5-2.5v-9c0-1.38,1.12-2.5,2.5-2.5l0,0 c1.38,0,2.5,1.12,2.5,2.5V25.5z" style="fill:#90A4AE;"/>
    <path d="M82,25.5c0,1.38-1.12,2.5-2.5,2.5l0,0c-1.38,0-2.5-1.12-2.5-2.5v-9c0-1.38,1.12-2.5,2.5-2.5l0,0 c1.38,0,2.5,1.12,2.5,2.5V25.5z" style="fill:#90A4AE;"/>
    <rect height="9" style="fill:#90A4AE;" width="32" x="48" y="16"/>
  </g>
  <g style="opacity:0.2;">
    <path d="M79.58,15.92c0.28,0,0.5,0.22,0.5,0.5v9c0,0.28-0.22,0.5-0.5,0.5s-0.5-0.22-0.5-0.5v-0.5 c0-1.1-0.9-2-2-2H68.2c-0.68,0-1.31,0.34-1.68,0.91s-0.43,1.28-0.15,1.9l12.31,27.62l-1.83,0.81L74.6,49.1 c-0.32-0.72-1.04-1.19-1.83-1.19H55.39c-0.79,0-1.51,0.46-1.83,1.19l-2.25,5.06l-1.83-0.81l6.8-15.32 c0.06-0.09,0.12-0.19,0.17-0.3l5.35-12c0.28-0.62,0.22-1.33-0.15-1.9s-1-0.91-1.68-0.91h-9.88c-1.1,0-2,0.9-2,2v0.5 c0,0.28-0.22,0.5-0.5,0.5s-0.5-0.22-0.5-0.5v-9c0-0.28,0.22-0.5,0.5-0.5c0.27,0,0.45,0.2,0.49,0.4c0.19,0.93,1.01,1.6,1.96,1.6 h2.55c0.73,0,1.39-0.39,1.75-1.03c0.34-0.61,0.95-0.97,1.62-0.97h15.25c0.68,0,1.28,0.36,1.62,0.97c0.35,0.63,1.02,1.03,1.75,1.03 h2.55c0.95,0,1.77-0.67,1.96-1.6C79.13,16.12,79.31,15.92,79.58,15.92 M61.18,38.92H59.4c-0.79,0-1.51,0.46-1.83,1.19l-2.23,5 c-0.28,0.62-0.22,1.33,0.15,1.9c0.37,0.57,1,0.91,1.68,0.91h13.82c0.68,0,1.31-0.34,1.68-0.91s0.43-1.28,0.15-1.9l-2.23-5 c-0.32-0.72-1.04-1.19-1.83-1.19h-1.78c0.68,0,1.31-0.34,1.68-0.91c0.37-0.57,0.43-1.28,0.15-1.9l-2.9-6.51 c-0.32-0.72-1.04-1.19-1.83-1.19s-1.51,0.46-1.83,1.19l-2.9,6.51c-0.28,0.62-0.22,1.33,0.15,1.9 C59.88,38.57,60.51,38.92,61.18,38.92 M79.58,13.92c-1.21,0-2.22,0.86-2.45,2h-2.55c-0.66-1.19-1.92-2-3.37-2H55.96 c-1.46,0-2.71,0.81-3.37,2h-2.55c-0.23-1.14-1.24-2-2.45-2c-1.38,0-2.5,1.12-2.5,2.5v9c0,1.38,1.12,2.5,2.5,2.5 c1.38,0,2.5-1.12,2.5-2.5v-0.5h9.88l-5.35,12h-0.03l-7.74,17.45l5.48,2.44l3.07-6.89h17.38l3.07,6.89l5.48-2.44L68.2,24.92h8.88 v0.5c0,1.38,1.12,2.5,2.5,2.5c1.38,0,2.5-1.12,2.5-2.5v-9C82.08,15.04,80.96,13.92,79.58,13.92L79.58,13.92z M61.18,36.92 l2.9-6.51l2.9,6.51H61.18L61.18,36.92z M57.17,45.92l2.23-5h9.36l2.23,5H57.17L57.17,45.92z" style="fill:#424242;"/>
  </g>
  <linearGradient id="SVGID_1_" gradientUnits="userSpaceOnUse" x1="64" x2="64" y1="51.25" y2="108.7522">
    <stop offset="0.2785" style="stop-color:#F44336"/>
    <stop offset="0.5259" style="stop-color:#EE3F35"/>
    <stop offset="0.8679" style="stop-color:#DC3431"/>
    <stop offset="1" style="stop-color:#D32F2F"/>
  </linearGradient>
  <path d="M96.39,48H31.61C25.04,48,20,53.79,20,61.06v36.49c0,1.06-0.06,1.87,0.09,2.88 C21.44,109.36,28.3,116,36.72,116h54.56c8.42,0,15.29-6.64,16.63-15.57c0.15-1.01,0.09-1.82,0.09-2.88V61.06 C108,53.79,102.96,48,96.39,48z" style="fill:url(#SVGID_1_);"/>
  <path d="M76.33,96.32H52.16c-2.21,0-4-1.79-4-4V63.98c0-2.21,1.79-4,4-4h24.17c2.21,0,4,1.79,4,4v28.33 C80.33,94.53,78.54,96.32,76.33,96.32z" style="fill:#4FC3F7;"/>
  <g style="opacity:0.2;">
    <path d="M96.2,51c4.83,0,8.8,4.42,8.8,10.06v36.49c0,0.27,0,0.52,0.01,0.76c0.01,0.66,0.02,1.14-0.06,1.67 c-1.14,7.54-6.89,13.02-13.67,13.02H36.72c-6.78,0-12.53-5.47-13.67-13.02c-0.08-0.53-0.07-1.01-0.06-1.67 c0-0.24,0.01-0.49,0.01-0.76V61.06C23,55.42,26.78,51,31.61,51H96 M96.39,48H31.61C25.04,48,20,53.79,20,61.06v36.49 c0,1.06-0.06,1.87,0.09,2.88C21.44,109.36,28.3,116,36.72,116h54.56c8.42,0,15.29-6.64,16.63-15.57c0.15-1.01,0.09-1.82,0.09-2.88 V61.06C108,53.79,102.96,48,96.39,48L96.39,48z" style="fill:#424242;"/>
  </g>
  <g style="opacity:0.2;">
    <path d="M76.33,62.98c0.55,0,1,0.45,1,1v28.33c0,0.55-0.45,1-1,1H52.16c-0.55,0-1-0.45-1-1V63.98 c0-0.55,0.45-1,1-1H76.33 M76.33,59.98H52.16c-2.21,0-4,1.79-4,4v28.33c0,2.21,1.79,4,4,4h24.17c2.21,0,4-1.79,4-4V63.98 C80.33,61.78,78.54,59.98,76.33,59.98L76.33,59.98z" style="fill:#424242;"/>
  </g>
  <path d="M36.05,96.32H20V59.98h16.05c2.21,0,4,1.79,4,4v28.33C40.05,94.53,38.26,96.32,36.05,96.32z" style="fill:#4FC3F7;"/>
  <path d="M108,96.32H91.69c-2.21,0-4-1.79-4-4V63.98c0-2.21,1.79-4,4-4H108V96.32z" style="fill:#4FC3F7;"/>
  <g style="opacity:0.2;">
    <path d="M36.05,62.98c0.55,0,1,0.45,1,1v28.33c0,0.55-0.45,1-1,1H23V62.98H36.05 M36.05,59.98H20v36.33 h16.05c2.21,0,4-1.79,4-4V63.98C40.05,61.78,38.26,59.98,36.05,59.98L36.05,59.98z" style="fill:#424242;"/>
  </g>
  <g style="opacity:0.2;">
    <path d="M105,62.98v30.33H91.69c-0.55,0-1-0.45-1-1V63.98c0-0.55,0.45-1,1-1H105 M108,59.98H91.69 c-2.21,0-4,1.79-4,4v28.33c0,2.21,1.79,4,4,4H108V59.98L108,59.98z" style="fill:#424242;"/>
  </g>
</svg>
